X:458
T: "Der Landsturm"
N: Z1138
O: Europa, Mitteleuropa, Tirol
R: Vaterland und Wehr
M: 2/4
L: 1/8
K: Bb
f | f3d | d3
d | c2FF | B3
F | FdBF | FdB
F | FecF | B3
f | f2dd | d3
d | c2FF | B3
F | FdBF | FdB
F | FecF | B2z2
ccFF | BBB2
ccFF | FBB2
FdBF | FdB
F | FecF | B4
ccFF | BBB2
ccFF | FBB

